X: 25736
T: Mary McMahon
R: reel
M: 4/4
K: Dmajor
fdec d2AG|FGAB =cAGc|Ad~d2 fded|(3Bcd ef geag|
fdec d2AG|FGAB =cAGc|Ad~d2 fdec|Addc d2e:|
|:~f3g a2ga|bgag fdde|~f3g afga|bgaf g2ag|~f3g a2ga|
bgag fdda|1 bgaf gbag|fdef g2ag:|2 bgaf gfed|(3Bcd ef gaag||

